image/chevron-left.svg

<?xml version="1.0" encoding="utf-8"?><!-- Uploaded to: SVG Repo, www.svgrepo.com, Generator: SVG Repo Mixer Tools -->
<svg width="800px" height="800px" viewBox="0 0 24 24" fill="none" xmlns="http://www.w3.org/2000/svg">
<path fill-rule="evenodd" clip-rule="evenodd" d="M17.4142 20.7071C17.8047 20.3166 17.8047 19.6834 17.4142 19.2929L10.1213 12L17.4142 4.70712C17.8047 4.3166 17.8047 3.68343 17.4142 3.29291L16.7071 2.5858C16.3166 2.19528 15.6834 2.19528 15.2929 2.5858L6.93934 10.9394C6.35355 11.5251 6.35355 12.4749 6.93934 13.0607L15.2929 21.4142C15.6834 21.8048 16.3166 21.8048 16.7071 21.4142L17.4142 20.7071Z" fill="#000000"/>
</svg>

<svg width="800" height="800" viewBox="0 0 24 24" fill="none" xmlns="http://www.w3.org/2000/svg"><path fill-rule="evenodd" clip-rule="evenodd" d="M17.414 20.707a1 1 0 000-1.414L10.121 12l7.293-7.293a1 1 0 000-1.414l-.707-.707a1 1 0 00-1.414 0l-8.354 8.353a1.5 1.5 0 000 2.122l8.354 8.353a1 1 0 001.414 0l.707-.707z" fill="#000"/></svg>9L10.1213 12L17.4142 4.70712C17.8047 4.3166 17.8047 3.68343 17.4142 3.29291L16.7071 2.5858C16.3166 2.19528 15.6834 2.19528 15.2929 2.5858L6.93934 10.9394C6.35355 11.5251 6.35355 12.4749 6.93934 13.0607L15.2929 21.4142C15.6834 21.8048 16.3166 21.8048 16.7071 21.4142L17.4142 20.7071Z" fill="#000000"/>
</svg>
